icon-themes/sifr_svg/cmd/pl/lc_underlinedouble.svg

<svg viewBox="0 0 24 24" xmlns="http://www.w3.org/2000/svg"><path d="m6 2v18h3v-8h4a5 5 0 0 0 5-5 5 5 0 0 0 -5-5h-4zm3 3h4a2 2 0 0 1 2 2 2 2 0 0 1 -2 2h-4zm-7 16v2h20v-2z" fill="#555753"/></svg>

<svg xmlns="http://www.w3.org/2000/svg" viewBox="0 0 24 24">
  <path
     style="fill:#555753"
     d="M 6 2 L 6 20 L 9 20 L 9 12 L 13 12 A 5 5 0 0 0 18 7 A 5 5 0 0 0 13 2 L 9 2 L 6 2 z M 9 5 L 13 5 A 2 2 0 0 1 15 7 A 2 2 0 0 1 13 9 L 9 9 L 9 5 z M 2 21 L 2 23 L 22 23 L 22 21 L 2 21 z "
     />
</svg>
